X:1
T:Lass Amonst the Heather
M:4/4
L:1/8
K:C
 FG| A3 D D2E-G| G3 E G2E-G| A3 A D3 D| c2B-AB-c d2-| d6c-d| e3 d d2A-B|\
c-BA-G G2A-B| c2 d2 A3 G| F2E-D C2 D2-| D6||
